X:113
T:Äppelbo gånglåt
M:2/4
L:1/16
R:Gånglåt
K:G

V:1 
D2 | G2(GD) G2B2 | d6(Bc) | d2(dB) d2(de) | c2(cB) A2(AB) |
c2(cd) e2(dc) | (Bc)(BA) G2(FG) | (AB)(AF) D2(EF) | G6 :|
|: (Bd) | g2g2 g2(fe) | f2f2 f2(gf) | e2e2 (eg)(fe) | e2(d^c) d2(=cB) |
c2(cB) A2(GA) | (Bc)(BA) G2(FG) | (AB)(AF) D2(EF) | G6 :|

V:2
D2 | B,2(B,G,) B,2D2 | G6(GA) | B2(BG) B2(Bc) | A2(AG) F2(FG) | 
A2(AB) c2(BA) | (GA)(GD) B,2(A,B,) | (DE)(DC) A,2(A,C) | B,6 :|
|: (GA) | B2B2 B2(dc) | d2A2 d2(ed) | c2G2 (ce)(dc) | c2(BA) B2(AG) | 
A2(AG) F2(EF) | (GA)(GD) B,2(A,B,) | (DE)(DC) A,2(A,C) | B,6 :|

(:musicend:)
(:music:)
